X:175 
T:Rakes of Drumlish, The 
S:Grier MS
F:file ID: cre.4/175rakes_d
B:CRE4.047 (RÃÂÃÂÃÂÃÂ©iceanna Dhroim Lis)
N:Not related to reel of the same name.
L:1/8
M:9/8
Q:160
R:slip jig
K:Am
A|BAG EGG EGG|BAG EGG c2A|
BAG EGG EGG|AGE GAB c2:|
|:A|BAB dBG dBG|BAB dBG c2A|
[1 BAB dBG dBG|AGE GAB c2 :|
[2 GBd g^fe dBG|AGE GAB c2A |]

%%%

